X:1
T:Schule fuer die Gitarre - Uebungsstuecke
T:No 5 - Moderato
T:No 5 - Moderato
T:Schule für die Gitarre - Übungsstücke
T:Johann Kaspar Mertz (1806-1856)
T:		
C:Johann Kaspar Mertz (1806-1856)
Z:
%%score ( 1 2 )
L:1/8
Q:1/4=114
M:4/4
K:C
V:1 treble-8 nm="Klassische Gitarre"
V:2 treble-8 
V:1
!p!"^Moderato" (3GBD (3GBD (3GBD (3GBD | G2 B2 [Be]2 d2 | (3GBD (3GBD (3GBD (3^GBD | %3
!<(! A2 c2!<)! [ce]2 d2 | (3AcD (3AcD (3AcD (3AcD | A2 c2 [c^f]2 [ce]2 | %6
 (3BdD (3BdD (3^A^cD (3=A=cD | (3GBD (3GBD G2 z2 |] %8
V:2
 z8 | G!<(!DG!<)!D G!>(!DdD!>)! | z8 | ADAD A!>(!DdD!>)! | z8 | ADAD ADAD | z8 | z8 |] %8

